packages/foundations/assets/icons/functional/images/security/lock_closed_12.svg

<svg width="12" height="12" viewBox="0 0 12 12" fill="none" xmlns="http://www.w3.org/2000/svg">
<g clip-path="url(#clip0_232_423)">
<path fill-rule="evenodd" clip-rule="evenodd" d="M6.00002 1.50514C7.28534 1.50514 8.39701 2.55068 8.40002 3.90514C8.40091 4.30512 8.40002 4.50514 8.40002 4.50514C9.06277 4.50514 9.60002 5.0424 9.60002 5.70514V9.29484C9.60002 9.95759 9.06277 10.4948 8.40002 10.4948H3.60002C2.93728 10.4948 2.40002 9.95759 2.40002 9.29484V5.70514C2.40002 5.0424 2.93728 4.50514 3.60002 4.50514V3.90514C3.60002 2.57966 4.67454 1.50514 6.00002 1.50514ZM8.40002 5.70514H3.60002V9.29484H8.40002V5.70514ZM6.00002 6.29484C6.30773 6.29484 6.56133 6.52647 6.59599 6.82487L6.60002 6.89484V8.0919C6.60002 8.42327 6.3314 8.6919 6.00002 8.6919C5.69232 8.6919 5.43872 8.46028 5.40406 8.16187L5.40002 8.0919V6.89484C5.40002 6.56347 5.66865 6.29484 6.00002 6.29484ZM6.00002 2.70514C5.36741 2.70514 4.80179 3.21445 4.80002 3.90514C4.799 4.30512 4.80002 4.50514 4.80002 4.50514H7.20002V3.90514C7.20002 3.2424 6.66277 2.70514 6.00002 2.70514Z" fill="#1A1C1F"/>
</g>
<defs>
<clipPath id="clip0_232_423">
<rect width="12" height="12" fill="white"/>
</clipPath>
</defs>
</svg>

<svg xmlns="http://www.w3.org/2000/svg" width="12" height="12" fill="none"><g clip-path="url(#a)"><path fill="#1A1C1F" fill-rule="evenodd" d="M6 1.505a2.41 2.41 0 0 1 2.4 2.4v.6a1.2 1.2 0 0 1 1.2 1.2v3.59a1.2 1.2 0 0 1-1.2 1.2H3.6a1.2 1.2 0 0 1-1.2-1.2v-3.59a1.2 1.2 0 0 1 1.2-1.2v-.6a2.4 2.4 0 0 1 2.4-2.4m2.4 4.2H3.6v3.59h4.8zm-2.4.59a.6.6 0 0 1 .596.53l.004.07v1.197a.6.6 0 0 1-1.196.07l-.004-.07V6.895a.6.6 0 0 1 .6-.6m0-3.59c-.633 0-1.198.51-1.2 1.2v.6h2.4v-.6a1.2 1.2 0 0 0-1.2-1.2" clip-rule="evenodd"/></g><defs><clipPath id="a"><path fill="#fff" d="M0 0h12v12H0z"/></clipPath></defs></svg>
